fs/table_simple_16_filled.svg

<svg viewBox="0 0 16 16" fill="none" xmlns="http://www.w3.org/2000/svg" height="1em" width="1em">
  <path d="M4.5 2C3.11929 2 2 3.11929 2 4.5V7.5H7.5V2H4.5ZM7.5 8.5H2V11.5C2 12.8807 3.11929 14 4.5 14H7.5V8.5ZM8.5 8.5H14V11.5C14 12.8807 12.8807 14 11.5 14H8.5V8.5ZM14 7.5V4.5C14 3.11929 12.8807 2 11.5 2H8.5V7.5H14Z" fill="#212121"/>
</svg>

<svg viewBox="0 0 16 16" fill="none" xmlns="http://www.w3.org/2000/svg" height="1em" width="1em">
  <path d="M4.5 2A2.5 2.5 0 0 0 2 4.5v3h5.5V2h-3Zm3 6.5H2v3A2.5 2.5 0 0 0 4.5 14h3V8.5Zm1 0H14v3a2.5 2.5 0 0 1-2.5 2.5h-3V8.5Zm5.5-1v-3A2.5 2.5 0 0 0 11.5 2h-3v5.5H14Z" fill="#212121"/>
</svg>
